X: 1
T: The Connaughtman's Rambles
R: jig
M: 6/8
L: 1/8
K: Dmaj
|:FAA dAA|BAA dAG|FAA dfe|dBB BAG|
FAA dAA|BAA def|gfe dfe|1dBB BAG:|2 dBB B3||
|:fbb faf|fed ede|fbb faf|fed e3|
fbb faf|fed def|gfe dfe|1 dBB B3:|2 dBB BAG||


Tune 19	Setting 28346

